build/img/features/feature-0.svg

<svg width="84" height="84" viewBox="0 0 84 84" fill="none" xmlns="http://www.w3.org/2000/svg">
<path d="M74.9988 61.372C74.9695 62.4522 74.5339 70.0408 68.3384 74.8688L67.9209 74.0341H67.5042C67.0998 73.6987 66.542 73.3212 65.7892 72.9623C64.1377 72.1751 61.5993 71.5013 57.7503 71.5013C53.1153 71.5013 49.0759 74.3561 46.3797 76.8607C44.9913 78.1504 43.8638 79.4367 43.0797 80.4047C42.6864 80.8903 42.3763 81.2997 42.1598 81.5947C42.0992 81.6773 42.0458 81.751 42 81.815C41.9542 81.751 41.9008 81.6773 41.8402 81.5947C41.6237 81.2997 41.3136 80.8903 40.9203 80.4048C40.1362 79.4368 39.0088 78.1505 37.6204 76.8607C34.9242 74.3561 30.8848 71.5013 26.2497 71.5013C18.9695 71.5013 16.3775 73.9328 15.6859 74.8876C9.46745 70.0608 9.03053 62.4544 9.00124 61.3721C9.93934 60.6176 15.9994 55.2798 15.9994 43.7507C15.9994 37.7374 14.3263 33.3718 12.588 30.4729C11.7227 29.03 10.8478 27.9608 10.1694 27.237C9.83004 26.8749 9.53925 26.5987 9.32243 26.4045C9.21397 26.3074 9.12397 26.2308 9.05558 26.1742C9.0349 26.1571 9.01623 26.1419 8.99967 26.1285C9.05967 18.1449 14.992 13.1672 15.8131 12.518C21.7585 13.6885 26.855 13.2503 30.5623 10.6624L74.9988 61.372ZM74.9988 61.372C74.9826 61.3589 74.9644 61.3441 74.9443 61.3274C74.8759 61.2709 74.7859 61.1942 74.6774 61.0971C74.4606 60.903 74.1698 60.6267 73.8305 60.2647C73.152 59.5409 72.2771 58.4717 71.4118 57.0287C69.6735 54.1298 68.0004 49.7643 68.0004 43.7509C68.0004 32.2155 74.0673 26.8781 75.0002 26.1283C74.94 18.1451 69.0082 13.1677 68.1866 12.518C62.2392 13.6886 57.1461 13.2503 53.4374 10.6624C49.7521 8.09204 48.9107 4.40332 48.7755 3.66954C48.1293 3.36563 45.0546 2 42 2C38.9468 2 35.8738 3.36422 35.2241 3.66962C35.0832 4.42931 34.2347 8.10054 30.5631 10.6618L74.9988 61.372Z" fill="#5D5D5D" stroke="#5D5D5D" stroke-width="4"/>
<circle cx="41.16" cy="42" r="16.8" fill="white"/>
<path d="M37.0951 40.3613C36.6154 39.8681 35.9775 39.5967 35.2991 39.5967C34.6206 39.5967 33.9826 39.8682 33.5027 40.3613C32.5124 41.3794 32.5124 43.0361 33.5027 44.0541L38.1155 48.7955C38.5952 49.2885 39.2331 49.5599 39.9117 49.5599C40.5902 49.5599 41.2281 49.2885 41.7079 48.7954L51.3374 38.897C52.3276 37.8787 52.3276 36.2222 51.3372 35.2044C50.8575 34.7113 50.2196 34.4399 49.541 34.4399C48.8624 34.4399 48.2245 34.7114 47.7447 35.2044L39.9116 43.2562L37.0951 40.3613Z" fill="#07BBF0"/>
</svg>

<svg width="84" height="84" fill="none" xmlns="http://www.w3.org/2000/svg"><path d="M74.999 61.372c-.03 1.08-.465 8.669-6.66 13.497l-.418-.835h-.417a8.2 8.2 0 0 0-1.715-1.072c-1.651-.787-4.19-1.46-8.039-1.46-4.635 0-8.674 2.854-11.37 5.359A34.738 34.738 0 0 0 42 81.815l-.16-.22a34.746 34.746 0 0 0-4.22-4.734c-2.696-2.505-6.735-5.36-11.37-5.36-7.28 0-9.872 2.432-10.564 3.387C9.467 70.06 9.03 62.454 9 61.372 9.94 60.618 16 55.28 16 43.751c0-6.014-1.673-10.38-3.411-13.278a19.112 19.112 0 0 0-2.419-3.236c-.339-.362-.63-.638-.847-.832A9.11 9.11 0 0 0 9 26.127c.06-7.983 5.992-12.96 6.813-13.61 5.946 1.17 11.042.732 14.75-1.856l44.436 50.71zm0 0a8.988 8.988 0 0 1-.321-.275 13.65 13.65 0 0 1-.847-.832 19.104 19.104 0 0 1-2.42-3.236c-1.737-2.9-3.41-7.265-3.41-13.278 0-11.535 6.066-16.873 7-17.623-.061-7.983-5.993-12.96-6.814-13.61-5.948 1.17-11.04.732-14.75-1.856-3.685-2.57-4.526-6.259-4.661-6.992C48.129 3.366 45.055 2 42 2c-3.053 0-6.126 1.364-6.776 1.67-.14.76-.99 4.43-4.66 6.992l44.435 50.71z" fill="#5D5D5D" stroke="#5D5D5D" stroke-width="4"/><circle cx="41.16" cy="42" r="16.8" fill="#fff"/><path d="M37.095 40.361a2.489 2.489 0 0 0-3.592 0 2.666 2.666 0 0 0 0 3.693l4.612 4.741a2.49 2.49 0 0 0 3.593 0l9.63-9.898a2.666 2.666 0 0 0 0-3.693 2.49 2.49 0 0 0-3.593 0l-7.833 8.052-2.817-2.895z" fill="#07BBF0"/></svg>
